X: 7
T: Klezmer mazurka    [Em]
O: all of Eastern Europe
R: mazurka
M: 3/4
L: 1/8
K: Em
"B"
|: "Em"B>G E2 E2 | "Am"c>A F4 | "B7"B,>^D FA GF | "Em"E>^D EF GA \
|  "Em"B>G E2 E2 | "Am"c>A F4 | "B7"B,>^D FA GF | "Em"Ez "fine"E4 :|
"C"
|: "Em"~G2 AG FE | "B7"E2 ^D4 | B>c BA GF | "Em"E>^D EF GA \
|   "Em"~G2 AG FE | "Adim"^D2 c4 | "B7"B>c BA GF | "Em"Ez E4 :|
"B"
[| "Em"B>G E2 E2 | "Am"c>A F4 | "B7"B,>^D FA GF | "Em"E>^D EF GA \
|  "Em"B>G E2 E2 | "Am"c>A F4 | "B7"B,>^D FA GF | "Em"Ez E4 |]
"D"
|: "G"[BG]>[cA] [^c^A][dB] [e=c][dB] | [B2G2] [G4D4] \
| "D7"[fd]>[ec] [c2A2] [c2A2] | "G"[ec]>[dB] [B4G4] \
| "G"[BG]>[cA] [^c^A][dB] [e=c][dB] | [B2G2] [g4B4] \
| "D7"[fd]>[ec] [dB][cA] [BG][AF] |1 "G"[GG]z [G4G4] :|2 "G"[GG]z "B7"[A4F4] |]

%%sep 1 1 500

